app/img/_src/main/howwework/work-5.svg

<svg width="60" height="52" viewBox="0 0 60 52" fill="none" xmlns="http://www.w3.org/2000/svg">
<path d="M13.5484 15.1953V14.8711H11.6129V15.1953C11.6129 15.7498 11.6274 16.3043 11.6555 16.8559L13.589 16.7572C13.5629 16.2375 13.5484 15.7179 13.5484 15.1953Z" fill="url(#paint0_linear)"/>
<path d="M13.7429 18.6318L11.82 18.8515C12.3736 23.726 14.0729 28.4902 16.7332 32.6273L18.361 31.5802C15.8603 27.6909 14.2645 23.2131 13.7429 18.6318Z" fill="url(#paint1_linear)"/>
<path d="M35.672 5.39893C33.9958 6.53118 32.0342 7.12925 30 7.12925C27.9658 7.12925 26.0052 6.53118 24.3291 5.39989L23.2462 7.00441C25.2436 8.35247 27.5787 9.06473 30 9.06473C32.4213 9.06473 34.7565 8.35247 36.7549 7.00344L35.672 5.39893Z" fill="url(#paint2_linear)"/>
<path d="M8.70968 33.2583H6.77419C6.77419 36.9928 3.73452 40.0325 0 40.0325V41.968C3.73452 41.968 6.77419 45.0077 6.77419 48.7422H8.70968C8.70968 45.0077 11.7494 41.968 15.4839 41.968V40.0325C11.7494 40.0325 8.70968 36.9928 8.70968 33.2583ZM7.74194 44.7696C6.90968 43.1535 5.58871 41.8325 3.97258 41.0002C5.58871 40.168 6.90968 38.847 7.74194 37.2309C8.57419 38.847 9.89516 40.168 11.5113 41.0002C9.89516 41.8325 8.57419 43.1535 7.74194 44.7696Z" fill="url(#paint3_linear)"/>
<path d="M53.2258 8.09692H51.3726C49.5397 3.53788 45.0532 0.35498 39.9697 0.35498C37.5697 0.35498 35.3129 1.00434 33.4432 2.23143C31.3732 3.59401 28.6277 3.59401 26.5568 2.23143C24.6881 1.00434 22.4313 0.35498 20.0303 0.35498C13.2542 0.35498 7.74194 5.86724 7.74194 12.6434V15.1953C7.74194 22.134 9.72581 28.885 13.4777 34.7214C15.4965 37.8618 16.979 41.2905 17.8848 44.9118L18.9377 49.1253C19.3074 50.6098 20.6342 51.6453 22.1632 51.6453C23.8229 51.6453 25.2068 50.454 25.4516 48.8127L27.6223 34.3372C27.8013 33.1518 28.801 32.2905 30 32.2905C31.199 32.2905 32.1987 33.1518 32.3768 34.3372L34.5474 48.8127C34.7932 50.454 36.1771 51.6453 37.8368 51.6453C39.3658 51.6453 40.6926 50.6098 41.0623 49.1253L42.1161 44.9118C43.0219 41.2895 44.5055 37.8608 46.5242 34.7214C48.7297 31.2898 50.3429 27.4576 51.2865 23.4801C51.2855 23.514 51.2903 23.5469 51.2903 23.5808H53.2258C53.2258 19.8463 56.2655 16.8066 60 16.8066V14.8711C56.2655 14.8711 53.2258 11.8314 53.2258 8.09692ZM44.8955 33.6743C42.7616 36.9937 41.1958 40.6169 40.2387 44.4434L39.1839 48.6569C39.03 49.2772 38.4755 49.7098 37.8368 49.7098C37.1429 49.7098 36.5652 49.2114 36.4626 48.5253L34.2919 34.0498C33.9707 31.9082 32.1648 30.355 30 30.355C27.8352 30.355 26.0294 31.9082 25.7081 34.0498L23.5374 48.5253C23.4358 49.2114 22.8571 49.7098 22.1632 49.7098C21.5245 49.7098 20.97 49.2772 20.8142 48.6569L19.7603 44.4434C18.8042 40.6159 17.2374 36.9927 15.1036 33.6743C11.5539 28.1514 9.67743 21.7614 9.67743 15.1953V12.6434C9.67743 6.93466 14.3216 2.29046 20.0303 2.29046C22.0519 2.29046 23.941 2.8295 25.4932 3.8495C26.849 4.74079 28.3665 5.19369 30 5.19369C31.6336 5.19369 33.151 4.74079 34.5058 3.8495C36.059 2.8295 37.9481 2.29046 39.9697 2.29046C45.0755 2.29046 49.4807 6.09466 50.2065 11.0621L50.2471 11.6921C49.0471 13.5976 46.9297 14.8711 44.5161 14.8711V16.8066C46.7884 16.8066 48.7984 17.935 50.0274 19.6566C49.3742 24.6192 47.6013 29.4647 44.8955 33.6743ZM52.2581 19.6082C51.4258 17.9921 50.1048 16.6711 48.4887 15.8389C50.1048 15.0066 51.4258 13.6856 52.2581 12.0695C53.0903 13.6856 54.4113 15.0066 56.0274 15.8389C54.4113 16.6711 53.0903 17.9921 52.2581 19.6082Z" fill="url(#paint4_linear)"/>
<defs>
<linearGradient id="paint0_linear" x1="12.601" y1="14.8711" x2="12.601" y2="16.8559" gradientUnits="userSpaceOnUse">
<stop stop-color="#8888D3"/>
<stop offset="1" stop-color="#5E60A3"/>
</linearGradient>
<linearGradient id="paint1_linear" x1="15.0905" y1="18.6318" x2="15.0905" y2="32.6273" gradientUnits="userSpaceOnUse">
<stop stop-color="#8888D3"/>
<stop offset="1" stop-color="#5E60A3"/>
</linearGradient>
<linearGradient id="paint2_linear" x1="30.0005" y1="5.39893" x2="30.0005" y2="9.06473" gradientUnits="userSpaceOnUse">
<stop stop-color="#8888D3"/>
<stop offset="1" stop-color="#5E60A3"/>
</linearGradient>
<linearGradient id="paint3_linear" x1="7.74194" y1="33.2583" x2="7.74194" y2="48.7422" gradientUnits="userSpaceOnUse">
<stop stop-color="#8888D3"/>
<stop offset="1" stop-color="#5E60A3"/>
</linearGradient>
<linearGradient id="paint4_linear" x1="33.871" y1="0.35498" x2="33.871" y2="51.6453" gradientUnits="userSpaceOnUse">
<stop stop-color="#8888D3"/>
<stop offset="1" stop-color="#5E60A3"/>
</linearGradient>
</defs>
</svg>

<svg width="60" height="52" fill="none" xmlns="http://www.w3.org/2000/svg"><path d="M13.548 15.195v-.324h-1.935v.324c0 .555.014 1.11.043 1.66l1.933-.098c-.026-.52-.04-1.04-.04-1.562z" fill="url(#paint0_linear)"/><path d="M13.743 18.632l-1.923.22a32.365 32.365 0 004.913 13.775l1.628-1.047a30.44 30.44 0 01-4.618-12.948z" fill="url(#paint1_linear)"/><path d="M35.672 5.399A10.094 10.094 0 0130 7.129c-2.034 0-3.995-.598-5.67-1.73l-1.084 1.605A12.026 12.026 0 0030 9.064c2.421 0 4.757-.712 6.755-2.06l-1.083-1.605z" fill="url(#paint2_linear)"/><path d="M8.71 33.258H6.774A6.783 6.783 0 010 40.032v1.936a6.783 6.783 0 016.774 6.774H8.71a6.783 6.783 0 016.774-6.774v-1.936a6.783 6.783 0 01-6.774-6.774zM7.742 44.77A8.753 8.753 0 003.972 41a8.752 8.752 0 003.77-3.77 8.752 8.752 0 003.77 3.77 8.753 8.753 0 00-3.77 3.77z" fill="url(#paint3_linear)"/><path d="M53.226 8.097h-1.853C49.54 3.537 45.053.355 39.97.355c-2.4 0-4.657.65-6.527 1.876a6.312 6.312 0 01-6.886 0C24.688 1.004 22.43.355 20.03.355c-6.776 0-12.288 5.512-12.288 12.288v2.552c0 6.939 1.984 13.69 5.736 19.526a34.117 34.117 0 014.407 10.19l1.053 4.214a3.318 3.318 0 003.225 2.52 3.304 3.304 0 003.289-2.832l2.17-14.476A2.391 2.391 0 0130 32.29a2.39 2.39 0 012.377 2.047l2.17 14.476a3.306 3.306 0 003.29 2.832 3.318 3.318 0 003.225-2.52l1.054-4.213a34.1 34.1 0 014.408-10.19 36.393 36.393 0 004.762-11.242c0 .034.004.067.004.1h1.936A6.783 6.783 0 0160 16.808V14.87a6.783 6.783 0 01-6.774-6.774zm-8.33 25.577a36.05 36.05 0 00-4.657 10.77l-1.055 4.213a1.385 1.385 0 01-1.347 1.053 1.381 1.381 0 01-1.374-1.185L34.292 34.05A4.313 4.313 0 0030 30.355a4.313 4.313 0 00-4.292 3.695l-2.17 14.475a1.38 1.38 0 01-1.375 1.185 1.39 1.39 0 01-1.349-1.053l-1.054-4.214a36.005 36.005 0 00-4.656-10.769 34.111 34.111 0 01-5.427-18.479v-2.552c0-5.708 4.645-10.353 10.353-10.353 2.022 0 3.911.54 5.463 1.56A8.073 8.073 0 0030 5.194a8.067 8.067 0 004.506-1.345c1.553-1.02 3.442-1.559 5.464-1.559 5.105 0 9.51 3.805 10.236 8.772l.041.63a6.77 6.77 0 01-5.73 3.18v1.935a6.764 6.764 0 015.51 2.85 34.383 34.383 0 01-5.132 14.017zm7.362-14.066a8.752 8.752 0 00-3.77-3.77 8.753 8.753 0 003.77-3.768 8.752 8.752 0 003.77 3.769 8.752 8.752 0 00-3.77 3.77z" fill="url(#paint4_linear)"/><defs><linearGradient id="paint0_linear" x1="12.601" y1="14.871" x2="12.601" y2="16.856" gradientUnits="userSpaceOnUse"><stop stop-color="#8888D3"/><stop offset="1" stop-color="#5E60A3"/></linearGradient><linearGradient id="paint1_linear" x1="15.091" y1="18.632" x2="15.091" y2="32.627" gradientUnits="userSpaceOnUse"><stop stop-color="#8888D3"/><stop offset="1" stop-color="#5E60A3"/></linearGradient><linearGradient id="paint2_linear" x1="30" y1="5.399" x2="30" y2="9.065" gradientUnits="userSpaceOnUse"><stop stop-color="#8888D3"/><stop offset="1" stop-color="#5E60A3"/></linearGradient><linearGradient id="paint3_linear" x1="7.742" y1="33.258" x2="7.742" y2="48.742" gradientUnits="userSpaceOnUse"><stop stop-color="#8888D3"/><stop offset="1" stop-color="#5E60A3"/></linearGradient><linearGradient id="paint4_linear" x1="33.871" y1=".355" x2="33.871" y2="51.645" gradientUnits="userSpaceOnUse"><stop stop-color="#8888D3"/><stop offset="1" stop-color="#5E60A3"/></linearGradient></defs></svg>
